X: 1
T: Paddy's Resource
R: jig
M: 6/8
L: 1/8
K: Gmaj
|:d|GFG DB,D|GBd e2d|gdB BAB|cBc E2F|
GFG DB,D|GBd e2d|gdB BAB|cEF G2:|
|:D|GBd GBd|GBd cBA|GBd efg|fd^c def|
gbg faf|ece ~d2B|cBc Adc|BGF G2:|
